!!!OTL: 1614. Wandertrost.
!!!ARE: Europa, Mitteleuropa, Deutschland, Hessen, Nassau
!!!SCT: E1614A
!!!TXL: @@DE
!!!YEM: Copyright 1995, estate of Helmut Schaffrath.
**kern	**text
*ICvox	*
*M3/4	*
*k[b-e-a-]	*
*E-:	*
!LO:TX:a:t=Heiter, aber nicht geschwind.	!
!LO:TX:a:t=im Naussauerlande.	!
{4e-	Friſch,
=1	=1
4e-	lu-
4B-	-ſtig
4g	und
=2	=2
4g	fröh-
4e-}	-lich,
{4b-	ihr
=3	=3
4b-	Hand-
8ccL	-werks-
8b-J	.
8a-L	-ge-
8gJ	.
=4	=4
4g	-ſel-
4f}	-len!
{4e-	Und
=5	=5
4e-	thut
4B-	euch
4g	mit
=6	=6
4g	ängſt-
4e-}	-li-
{4b-	-chen
=7	=7
4b-	Sor-
8ccL	-gen
8b-J	.
8a-L	nicht
8gJ	.
=8	=8
4g	quä-
4f}	-len!
{8b-	Denn
8b-	nicht
=9	=9
8ccL	Reichthum
8ddJ	.
4ee-	.
8ddL	macht
8ccJ	.
=10	=10
4b-	glück-
4g}	-lich,
{4b-	Ʒu-
=11	=11
8cc	-friedenheit
8dd	.
4ee-	.
8ddL	macht
8ccJ	.
=12	=12
2b-}	reich;
{4b-	wir
=13	=13
8b-L	al-
8ggJ	.
4gg	-le
4gg	ſind
=14	=14
8ggL	Brü-
8ffJ	.
4ff}	-der,
{4ffL	wir
=15	=15
8ffL	al-
8ggJ	.
4aa-	-le
4dd	ſind
=16	=16
2ee-}	gleich.
==	==
!!!AGN: Staende -, Handwerker -, Gesellen - Lied, Wanderschaft
!!!ONB: ESAC (Essen Associative Code) Database: ERK3
!!!AMT: simple triple
!!!AIN: vox
!!!EED: Helmut Schaffrath
!!!EEV: 1.0
!!!GTL: Staendelieder (Berufslieder). 8. Handwerkerlieder.
!!!URL-scan: https://rosdok.uni-rostock.de/mcrviewer/recordIdentifier/rosdok_ppn745177999/iview2/phys_0437.iview2?x=-449.8344612962892&y=15.231402337551117&scale=0.47549036216460333&rotation=0&layout=singlePageLayout
!!!ENC: Anna Maria Matuszewska
!!!EEV: 2025/08/01
*-	*-
